src/assets/icons/newspaper.svg

<?xml version="1.0" encoding="UTF-8"?>
<svg xmlns="http://www.w3.org/2000/svg" id="Layer_1" data-name="Layer 1" viewBox="0 0 24 24">
  <path d="m19.5,0h-10c-2.481,0-4.5,2.019-4.5,4.5v2.5h-1c-2.206,0-4,1.794-4,4v10c0,1.654,1.346,3,3,3h16.5c2.481,0,4.5-2.019,4.5-4.5V4.5c0-2.481-2.019-4.5-4.5-4.5ZM5,21c0,1.103-.897,2-2,2s-2-.897-2-2v-10c0-1.654,1.346-3,3-3h1v13Zm18-1.5c0,1.93-1.57,3.5-3.5,3.5H5.234c.476-.531.766-1.232.766-2V4.5c0-1.93,1.57-3.5,3.5-3.5h10c1.93,0,3.5,1.57,3.5,3.5v15Zm-2-12c0,.276-.224.5-.5.5h-5c-.276,0-.5-.224-.5-.5s.224-.5.5-.5h5c.276,0,.5.224.5.5Zm0,4c0,.276-.224.5-.5.5h-12c-.276,0-.5-.224-.5-.5s.224-.5.5-.5h12c.276,0,.5.224.5.5Zm0,4c0,.276-.224.5-.5.5h-12c-.276,0-.5-.224-.5-.5s.224-.5.5-.5h12c.276,0,.5.224.5.5Zm0,4c0,.276-.224.5-.5.5h-12c-.276,0-.5-.224-.5-.5s.224-.5.5-.5h12c.276,0,.5.224.5.5Zm-11.5-11.5h2c.827,0,1.5-.673,1.5-1.5v-2c0-.827-.673-1.5-1.5-1.5h-2c-.827,0-1.5.673-1.5,1.5v2c0,.827.673,1.5,1.5,1.5Zm-.5-3.5c0-.276.224-.5.5-.5h2c.276,0,.5.224.5.5v2c0,.276-.224.5-.5.5h-2c-.276,0-.5-.224-.5-.5v-2Z"/>
</svg>

<svg width="24" height="24" viewBox="0 0 24 24" fill="none" xmlns="http://www.w3.org/2000/svg">
<path d="M19.5 0H9.5C7.019 0 5 2.019 5 4.5V7H4C1.794 7 0 8.794 0 11V21C0 22.654 1.346 24 3 24H19.5C21.981 24 24 21.981 24 19.5V4.5C24 2.019 21.981 0 19.5 0ZM5 21C5 22.103 4.103 23 3 23C1.897 23 1 22.103 1 21V11C1 9.346 2.346 8 4 8H5V21ZM23 19.5C23 21.43 21.43 23 19.5 23H5.234C5.71 22.469 6 21.768 6 21V4.5C6 2.57 7.57 1 9.5 1H19.5C21.43 1 23 2.57 23 4.5V19.5ZM21 7.5C21 7.776 20.776 8 20.5 8H15.5C15.224 8 15 7.776 15 7.5C15 7.224 15.224 7 15.5 7H20.5C20.776 7 21 7.224 21 7.5ZM21 11.5C21 11.776 20.776 12 20.5 12H8.5C8.224 12 8 11.776 8 11.5C8 11.224 8.224 11 8.5 11H20.5C20.776 11 21 11.224 21 11.5ZM21 15.5C21 15.776 20.776 16 20.5 16H8.5C8.224 16 8 15.776 8 15.5C8 15.224 8.224 15 8.5 15H20.5C20.776 15 21 15.224 21 15.5ZM21 19.5C21 19.776 20.776 20 20.5 20H8.5C8.224 20 8 19.776 8 19.5C8 19.224 8.224 19 8.5 19H20.5C20.776 19 21 19.224 21 19.5ZM9.5 8H11.5C12.327 8 13 7.327 13 6.5V4.5C13 3.673 12.327 3 11.5 3H9.5C8.673 3 8 3.673 8 4.5V6.5C8 7.327 8.673 8 9.5 8ZM9 4.5C9 4.224 9.224 4 9.5 4H11.5C11.776 4 12 4.224 12 4.5V6.5C12 6.776 11.776 7 11.5 7H9.5C9.224 7 9 6.776 9 6.5V4.5Z" fill="#787891"/>
</svg>
